icons/sh.svg

<?xml version="1.0" ?>
<svg xmlns="http://www.w3.org/2000/svg" xmlns:ev="http://www.w3.org/2001/xml-events" xmlns:xlink="http://www.w3.org/1999/xlink" baseProfile="full" height="496px" version="1.1" viewBox="-1025.579311562144 46.44732979066089 12296.7427608977 10149.943999220086" width="600px">
	<defs/>
	<path d="M 5865.0,9335.0 C 5827.0,9328.0 5744.0,9303.0 5682.0,9280.0 C 5582.0,9243.0 5565.0,9240.0 5537.0,9250.0 C 5508.0,9260.0 5503.0,9258.0 5479.0,9232.0 C 5458.0,9209.0 5451.0,9189.0 5446.0,9129.0 C 5440.0,9069.0 5398.0,8892.0 5388.0,8885.0 C 5386.0,8884.0 5360.0,8869.0 5330.0,8850.0 C 5231.0,8790.0 5071.0,8639.0 5070.0,8604.0 C 5070.0,8599.0 5084.0,8576.0 5100.0,8553.0 C 5130.0,8512.0 5130.0,8512.0 5118.0,8449.0 L 5105.0,8385.0 L 5045.0,8364.0 L 4985.0,8342.0 L 4957.0,8366.0 C 4916.0,8400.0 4870.0,8397.0 4795.0,8355.0 C 4739.0,8324.0 4730.0,8322.0 4696.0,8331.0 C 4675.0,8337.0 4657.0,8340.0 4655.0,8338.0 C 4653.0,8336.0 4664.0,8283.0 4680.0,8220.0 C 4696.0,8157.0 4710.0,8098.0 4710.0,8090.0 C 4710.0,8081.0 4677.0,8046.0 4636.0,8012.0 C 4570.0,7956.0 4558.0,7950.0 4518.0,7950.0 C 4475.0,7950.0 4471.0,7947.0 4424.0,7889.0 C 4369.0,7820.0 4360.0,7815.0 4273.0,7805.0 C 4216.0,7799.0 4209.0,7795.0 4190.0,7765.0 C 4173.0,7738.0 4151.0,7724.0 4061.0,7688.0 C 3953.0,7645.0 3952.0,7644.0 3873.0,7555.0 C 3829.0,7505.0 3771.0,7447.0 3744.0,7425.0 C 3685.0,7377.0 3683.0,7375.0 3675.0,7331.0 C 3671.0,7312.0 3649.0,7271.0 3624.0,7240.0 C 3581.0,7185.0 3580.0,7185.0 3508.0,7175.0 L 3435.0,7165.0 L 3428.0,7110.0 C 3425.0,7080.0 3413.0,7026.0 3402.0,6990.0 L 3383.0,6925.0 L 3317.0,6922.0 C 3254.0,6919.0 3251.0,6918.0 3217.0,6876.0 C 3198.0,6853.0 3163.0,6825.0 3141.0,6815.0 L 3099.0,6797.0 L 3067.0,6828.0 C 3038.0,6856.0 3027.0,6860.0 2979.0,6860.0 L 2924.0,6860.0 L 2904.0,6798.0 L 2884.0,6735.0 L 2816.0,6730.0 L 2749.0,6725.0 L 2716.0,6650.0 L 2684.0,6575.0 L 2635.0,6572.0 C 2607.0,6571.0 2544.0,6556.0 2493.0,6539.0 L 2401.0,6509.0 L 2347.0,6412.0 L 2293.0,6315.0 L 2234.0,6303.0 C 2202.0,6297.0 2142.0,6287.0 2103.0,6280.0 L 2030.0,6268.0 L 1975.0,6202.0 L 1920.0,6136.0 L 1920.0,6060.0 C 1920.0,5936.0 1863.0,5813.0 1712.0,5613.0 L 1613.0,5480.0 L 1580.0,5316.0 L 1548.0,5151.0 L 1589.0,5080.0 C 1611.0,5040.0 1630.0,5007.0 1630.0,5005.0 C 1630.0,5003.0 1611.0,4999.0 1588.0,4995.0 C 1473.0,4978.0 1482.0,4982.0 1474.0,4932.0 C 1470.0,4904.0 1458.0,4878.0 1444.0,4865.0 L 1421.0,4843.0 L 1451.0,4802.0 C 1479.0,4764.0 1481.0,4757.0 1470.0,4726.0 C 1456.0,4681.0 1413.0,4655.0 1331.0,4641.0 C 1296.0,4635.0 1266.0,4629.0 1265.0,4628.0 C 1264.0,4626.0 1248.0,4581.0 1231.0,4528.0 L 1198.0,4430.0 L 1111.0,4430.0 L 1023.0,4430.0 L 1005.0,4382.0 C 995.0,4356.0 970.0,4317.0 949.0,4295.0 C 906.0,4250.0 900.0,4219.0 922.0,4147.0 C 934.0,4108.0 934.0,4107.0 892.0,4071.0 C 851.0,4037.0 850.0,4033.0 850.0,3978.0 C 850.0,3947.0 855.0,3909.0 860.0,3894.0 C 870.0,3868.0 867.0,3862.0 817.0,3812.0 C 769.0,3764.0 760.0,3759.0 742.0,3769.0 C 724.0,3779.0 710.0,3773.0 646.0,3728.0 L 571.0,3675.0 L 570.0,3608.0 L 570.0,3542.0 L 409.0,3348.0 C 320.0,3242.0 243.0,3152.0 237.0,3149.0 C 232.0,3145.0 193.0,3139.0 151.0,3135.0 C 109.0,3131.0 72.0,3126.0 69.0,3125.0 C 66.0,3123.0 68.0,3091.0 74.0,3055.0 L 83.0,2989.0 L 41.0,2946.0 C 2.0,2906.0 -1.0,2899.0 7.0,2873.0 C 16.0,2846.0 18.0,2845.0 98.0,2842.0 C 189.0,2839.0 237.0,2856.0 298.0,2913.0 L 330.0,2944.0 L 330.0,2884.0 C 330.0,2837.0 360.0,2694.0 372.0,2685.0 C 374.0,2684.0 414.0,2688.0 462.0,2693.0 C 572.0,2706.0 610.0,2692.0 664.0,2619.0 L 700.0,2570.0 L 765.0,2570.0 C 829.0,2570.0 830.0,2569.0 854.0,2533.0 C 867.0,2512.0 886.0,2465.0 895.0,2428.0 L 913.0,2360.0 L 1029.0,2360.0 C 1144.0,2360.0 1146.0,2360.0 1238.0,2401.0 C 1289.0,2424.0 1332.0,2441.0 1334.0,2439.0 C 1336.0,2437.0 1365.0,2393.0 1399.0,2343.0 C 1433.0,2292.0 1463.0,2250.0 1465.0,2250.0 C 1468.0,2250.0 1493.0,2264.0 1521.0,2281.0 L 1572.0,2313.0 L 1619.0,2266.0 C 1665.0,2221.0 1667.0,2220.0 1731.0,2220.0 L 1796.0,2220.0 L 1834.0,2170.0 C 1872.0,2121.0 1873.0,2120.0 1929.0,2119.0 C 1985.0,2119.0 1985.0,2119.0 2028.0,2065.0 C 2088.0,1988.0 2094.0,1968.0 2080.0,1890.0 C 2068.0,1824.0 2068.0,1824.0 2102.0,1755.0 C 2122.0,1716.0 2152.0,1640.0 2170.0,1584.0 C 2198.0,1499.0 2208.0,1480.0 2236.0,1462.0 C 2256.0,1449.0 2293.0,1400.0 2334.0,1331.0 C 2398.0,1226.0 2403.0,1220.0 2473.0,1180.0 C 2512.0,1156.0 2590.0,1122.0 2644.0,1104.0 L 2744.0,1070.0 L 2992.0,1070.0 C 3231.0,1070.0 3241.0,1071.0 3292.0,1094.0 C 3321.0,1107.0 3356.0,1130.0 3370.0,1145.0 C 3384.0,1160.0 3436.0,1197.0 3485.0,1227.0 C 3535.0,1258.0 3578.0,1288.0 3582.0,1293.0 C 3585.0,1299.0 3591.0,1329.0 3595.0,1361.0 L 3602.0,1418.0 L 3680.0,1440.0 C 3750.0,1460.0 3762.0,1467.0 3786.0,1502.0 C 3801.0,1523.0 3841.0,1563.0 3875.0,1590.0 C 3913.0,1620.0 3943.0,1654.0 3954.0,1679.0 L 3972.0,1719.0 L 4054.0,1723.0 C 4117.0,1726.0 4160.0,1736.0 4247.0,1768.0 C 4308.0,1790.0 4386.0,1814.0 4419.0,1821.0 L 4480.0,1833.0 L 4480.0,1870.0 C 4480.0,1891.0 4494.0,1939.0 4511.0,1979.0 L 4543.0,2050.0 L 4595.0,2050.0 C 4623.0,2050.0 4672.0,2055.0 4703.0,2061.0 C 4744.0,2070.0 4767.0,2070.0 4791.0,2061.0 C 4816.0,2053.0 4838.0,2053.0 4882.0,2061.0 C 4931.0,2071.0 4946.0,2080.0 4980.0,2116.0 C 5002.0,2140.0 5020.0,2166.0 5020.0,2173.0 C 5020.0,2181.0 5002.0,2210.0 4980.0,2238.0 C 4941.0,2287.0 4940.0,2290.0 4940.0,2368.0 L 4940.0,2448.0 L 4975.0,2454.0 C 5020.0,2463.0 5026.0,2458.0 5034.0,2415.0 C 5043.0,2366.0 5077.0,2368.0 5139.0,2419.0 C 5178.0,2451.0 5195.0,2459.0 5235.0,2462.0 C 5281.0,2465.0 5285.0,2467.0 5294.0,2498.0 L 5303.0,2530.0 L 5447.0,2530.0 C 5574.0,2530.0 5596.0,2528.0 5632.0,2509.0 L 5674.0,2488.0 L 5730.0,2550.0 L 5786.0,2613.0 L 5831.0,2549.0 C 5875.0,2485.0 5876.0,2485.0 5945.0,2471.0 C 5984.0,2463.0 6043.0,2457.0 6077.0,2458.0 L 6138.0,2459.0 L 6145.0,2420.0 C 6152.0,2378.0 6157.0,2375.0 6221.0,2365.0 C 6252.0,2360.0 6287.0,2365.0 6340.0,2379.0 C 6381.0,2391.0 6415.0,2400.0 6417.0,2400.0 C 6418.0,2400.0 6442.0,2362.0 6471.0,2315.0 C 6517.0,2239.0 6539.0,2214.0 6540.0,2238.0 C 6540.0,2242.0 6553.0,2260.0 6568.0,2278.0 C 6595.0,2310.0 6596.0,2311.0 6630.0,2297.0 C 6649.0,2289.0 6684.0,2279.0 6706.0,2275.0 L 6748.0,2269.0 L 6779.0,2350.0 C 6806.0,2421.0 6810.0,2445.0 6810.0,2526.0 C 6810.0,2617.0 6811.0,2620.0 6833.0,2620.0 C 6845.0,2619.0 6879.0,2599.0 6909.0,2575.0 L 6964.0,2531.0 L 7004.0,2552.0 C 7073.0,2587.0 7181.0,2620.0 7229.0,2620.0 C 7275.0,2620.0 7275.0,2621.0 7328.0,2695.0 C 7358.0,2736.0 7384.0,2770.0 7385.0,2770.0 C 7387.0,2770.0 7412.0,2765.0 7440.0,2759.0 L 7490.0,2748.0 L 7490.0,2659.0 L 7490.0,2570.0 L 7529.0,2570.0 C 7563.0,2570.0 7573.0,2576.0 7599.0,2609.0 C 7622.0,2637.0 7649.0,2655.0 7702.0,2677.0 C 7769.0,2704.0 7776.0,2709.0 7784.0,2742.0 C 7792.0,2773.0 7789.0,2785.0 7762.0,2832.0 L 7730.0,2887.0 L 7756.0,2911.0 C 7770.0,2924.0 7799.0,2966.0 7821.0,3005.0 C 7842.0,3043.0 7876.0,3096.0 7896.0,3123.0 L 7932.0,3170.0 L 7866.0,3170.0 L 7800.0,3170.0 L 7800.0,3234.0 L 7800.0,3299.0 L 7853.0,3329.0 L 7907.0,3360.0 L 7976.0,3340.0 C 8014.0,3329.0 8073.0,3320.0 8107.0,3320.0 L 8170.0,3320.0 L 8170.0,3394.0 C 8170.0,3477.0 8161.0,3468.0 8262.0,3486.0 C 8293.0,3491.0 8301.0,3498.0 8310.0,3526.0 C 8321.0,3560.0 8322.0,3560.0 8383.0,3560.0 C 8433.0,3560.0 8453.0,3555.0 8482.0,3535.0 C 8515.0,3513.0 8529.0,3510.0 8614.0,3510.0 L 8708.0,3510.0 L 8775.0,3630.0 L 8842.0,3750.0 L 8886.0,3750.0 C 8924.0,3750.0 8932.0,3754.0 8942.0,3775.0 C 8956.0,3806.0 9080.0,3887.0 9126.0,3896.0 C 9170.0,3904.0 9174.0,3911.0 9196.0,4003.0 C 9212.0,4071.0 9218.0,4083.0 9247.0,4101.0 C 9289.0,4127.0 9290.0,4156.0 9250.0,4245.0 C 9228.0,4295.0 9220.0,4327.0 9220.0,4370.0 C 9220.0,4436.0 9215.0,4432.0 9333.0,4446.0 C 9383.0,4451.0 9393.0,4456.0 9408.0,4482.0 C 9417.0,4498.0 9450.0,4526.0 9480.0,4545.0 C 9533.0,4577.0 9540.0,4578.0 9670.0,4584.0 C 9744.0,4587.0 9852.0,4593.0 9910.0,4596.0 C 9968.0,4600.0 10031.0,4598.0 10050.0,4593.0 C 10073.0,4587.0 10100.0,4587.0 10130.0,4595.0 C 10174.0,4606.0 10175.0,4606.0 10178.0,4652.0 C 10180.0,4689.0 10141.0,4884.0 10128.0,4894.0 C 10127.0,4896.0 10103.0,4910.0 10076.0,4925.0 C 10038.0,4947.0 10015.0,4972.0 9972.0,5038.0 C 9942.0,5085.0 9907.0,5154.0 9894.0,5192.0 L 9871.0,5261.0 L 9916.0,5282.0 C 9948.0,5298.0 9959.0,5308.0 9954.0,5320.0 C 9951.0,5328.0 9945.0,5377.0 9942.0,5428.0 C 9938.0,5511.0 9935.0,5523.0 9915.0,5536.0 C 9901.0,5545.0 9888.0,5569.0 9881.0,5595.0 C 9871.0,5633.0 9873.0,5647.0 9893.0,5704.0 C 9906.0,5739.0 9930.0,5785.0 9947.0,5807.0 C 9973.0,5840.0 9978.0,5856.0 9984.0,5930.0 C 9987.0,5977.0 9993.0,6032.0 9996.0,6053.0 L 10003.0,6090.0 L 10070.0,6090.0 C 10135.0,6090.0 10138.0,6091.0 10149.0,6119.0 C 10156.0,6134.0 10179.0,6164.0 10201.0,6186.0 C 10262.0,6245.0 10257.0,6274.0 10174.0,6344.0 L 10109.0,6400.0 L 10034.0,6400.0 L 9960.0,6400.0 L 9960.0,6444.0 C 9960.0,6487.0 9960.0,6487.0 9908.0,6507.0 L 9855.0,6527.0 L 9852.0,6583.0 C 9850.0,6627.0 9845.0,6642.0 9830.0,6650.0 C 9811.0,6660.0 9801.0,6710.0 9818.0,6710.0 C 9822.0,6710.0 9836.0,6719.0 9850.0,6729.0 L 9874.0,6748.0 L 9827.0,6771.0 L 9780.0,6794.0 L 9780.0,6859.0 C 9780.0,6922.0 9778.0,6926.0 9747.0,6946.0 C 9717.0,6965.0 9711.0,6965.0 9651.0,6953.0 C 9616.0,6946.0 9556.0,6931.0 9519.0,6920.0 C 9450.0,6899.0 9450.0,6899.0 9405.0,6919.0 C 9376.0,6932.0 9313.0,6985.0 9223.0,7073.0 L 9085.0,7208.0 L 9107.0,7276.0 C 9119.0,7314.0 9134.0,7378.0 9141.0,7419.0 C 9148.0,7464.0 9161.0,7508.0 9175.0,7529.0 C 9188.0,7549.0 9208.0,7588.0 9219.0,7616.0 L 9239.0,7668.0 L 9214.0,7691.0 C 9196.0,7708.0 9190.0,7724.0 9190.0,7756.0 C 9190.0,7797.0 9190.0,7798.0 9144.0,7809.0 C 9118.0,7816.0 9071.0,7834.0 9039.0,7851.0 C 8980.0,7880.0 8980.0,7881.0 8980.0,7924.0 C 8980.0,7964.0 8976.0,7971.0 8946.0,7989.0 C 8911.0,8011.0 8906.0,8023.0 8895.0,8100.0 C 8890.0,8139.0 8893.0,8152.0 8922.0,8199.0 C 8953.0,8249.0 8960.0,8255.0 9023.0,8276.0 C 9060.0,8288.0 9104.0,8308.0 9120.0,8320.0 L 9150.0,8341.0 L 9096.0,8386.0 C 9048.0,8425.0 9040.0,8436.0 9030.0,8484.0 C 9020.0,8533.0 9021.0,8543.0 9039.0,8579.0 C 9051.0,8601.0 9060.0,8621.0 9060.0,8624.0 C 9060.0,8627.0 9008.0,8656.0 8945.0,8690.0 C 8838.0,8747.0 8826.0,8756.0 8773.0,8827.0 C 8741.0,8868.0 8710.0,8909.0 8703.0,8917.0 C 8696.0,8926.0 8633.0,8939.0 8508.0,8956.0 C 8299.0,8985.0 8279.0,8983.0 8099.0,8924.0 C 8021.0,8898.0 7986.0,8881.0 7964.0,8859.0 C 7948.0,8842.0 7890.0,8793.0 7835.0,8751.0 L 7735.0,8675.0 L 7655.0,8667.0 C 7611.0,8663.0 7550.0,8657.0 7520.0,8654.0 L 7465.0,8649.0 L 7410.0,8704.0 C 7380.0,8735.0 7347.0,8760.0 7337.0,8760.0 C 7327.0,8760.0 7302.0,8750.0 7281.0,8738.0 L 7243.0,8716.0 L 7174.0,8747.0 C 7136.0,8764.0 7106.0,8782.0 7108.0,8789.0 C 7109.0,8795.0 7111.0,8805.0 7113.0,8812.0 C 7114.0,8818.0 7100.0,8828.0 7082.0,8833.0 C 7052.0,8842.0 7046.0,8840.0 7016.0,8811.0 C 6997.0,8793.0 6939.0,8759.0 6887.0,8735.0 L 6791.0,8692.0 L 6715.0,8757.0 C 6640.0,8821.0 6638.0,8823.0 6603.0,8812.0 C 6573.0,8803.0 6553.0,8806.0 6462.0,8834.0 L 6355.0,8866.0 L 6345.0,8927.0 C 6340.0,8961.0 6331.0,8993.0 6325.0,8998.0 C 6320.0,9003.0 6276.0,9024.0 6228.0,9045.0 L 6140.0,9083.0 L 6140.0,9134.0 C 6140.0,9185.0 6139.0,9186.0 6057.0,9268.0 C 5968.0,9357.0 5973.0,9355.0 5865.0,9335.0" fill="pink"/>
	<path d="M 980.0,4706.0 C 980.0,4676.0 988.0,4666.0 1036.0,4627.0 C 1090.0,4584.0 1092.0,4583.0 1136.0,4593.0 C 1161.0,4599.0 1179.0,4608.0 1177.0,4614.0 C 1174.0,4620.0 1164.0,4651.0 1154.0,4683.0 L 1136.0,4740.0 L 1058.0,4740.0 L 980.0,4740.0 L 980.0,4706.0" fill="pink"/>
	<path d="M 590.0,4059.0 C 590.0,4041.0 604.0,4027.0 645.0,4003.0 L 700.0,3971.0 L 700.0,3999.0 C 700.0,4038.0 672.0,4068.0 628.0,4076.0 C 593.0,4082.0 590.0,4080.0 590.0,4059.0" fill="pink"/>
	<path d="M 2220.0,972.0 C 2220.0,934.0 2222.0,901.0 2225.0,898.0 C 2233.0,891.0 2330.0,911.0 2330.0,920.0 C 2330.0,932.0 2239.0,1040.0 2229.0,1040.0 C 2224.0,1040.0 2220.0,1009.0 2220.0,972.0" fill="pink"/>
</svg>

<?xml version="1.0" standalone="no"?>
<!DOCTYPE svg PUBLIC "-//W3C//DTD SVG 20010904//EN"
 "http://www.w3.org/TR/2001/REC-SVG-20010904/DTD/svg10.dtd">
<svg version="1.0" xmlns="http://www.w3.org/2000/svg"
 width="1024.000000pt" height="1024.000000pt" viewBox="0 0 1024.000000 1024.000000"
 preserveAspectRatio="xMidYMid meet">
<metadata>
Created by potrace 1.10, written by Peter Selinger 2001-2011
</metadata>
<g transform="translate(0.000000,1024.000000) scale(0.100000,-0.100000)"
fill="#000000" stroke="none">
<path d="M5865 9335 c-38 -7 -121 -32 -183 -55 -100 -37 -117 -40 -145 -30
-29 10 -34 8 -58 -18 -21 -23 -28 -43 -33 -103 -6 -60 -48 -237 -58 -244 -2
-1 -28 -16 -58 -35 -99 -60 -259 -211 -260 -246 0 -5 14 -28 30 -51 30 -41 30
-41 18 -104 l-13 -64 -60 -21 -60 -22 -28 24 c-41 34 -87 31 -162 -11 -56 -31
-65 -33 -99 -24 -21 6 -39 9 -41 7 -2 -2 9 -55 25 -118 16 -63 30 -122 30
-130 0 -9 -33 -44 -74 -78 -66 -56 -78 -62 -118 -62 -43 0 -47 -3 -94 -61 -55
-69 -64 -74 -151 -84 -57 -6 -64 -10 -83 -40 -17 -27 -39 -41 -129 -77 -108
-43 -109 -44 -188 -133 -44 -50 -102 -108 -129 -130 -59 -48 -61 -50 -69 -94
-4 -19 -26 -60 -51 -91 -43 -55 -44 -55 -116 -65 l-73 -10 -7 -55 c-3 -30 -15
-84 -26 -120 l-19 -65 -66 -3 c-63 -3 -66 -4 -100 -46 -19 -23 -54 -51 -76
-61 l-42 -18 -32 31 c-29 28 -40 32 -88 32 l-55 0 -20 -62 -20 -63 -68 -5 -67
-5 -33 -75 -32 -75 -49 -3 c-28 -1 -91 -16 -142 -33 l-92 -30 -54 -97 -54 -97
-59 -12 c-32 -6 -92 -16 -131 -23 l-73 -12 -55 -66 -55 -66 0 -76 c0 -124 -57
-247 -208 -447 l-99 -133 -33 -164 -32 -165 41 -71 c22 -40 41 -73 41 -75 0
-2 -19 -6 -42 -10 -115 -17 -106 -13 -114 -63 -4 -28 -16 -54 -30 -67 l-23
-22 30 -41 c28 -38 30 -45 19 -76 -14 -45 -57 -71 -139 -85 -35 -6 -65 -12
-66 -13 -1 -2 -17 -47 -34 -100 l-33 -98 -87 0 -88 0 -18 -48 c-10 -26 -35
-65 -56 -87 -43 -45 -49 -76 -27 -148 12 -39 12 -40 -30 -76 -41 -34 -42 -38
-42 -93 0 -31 5 -69 10 -84 10 -26 7 -32 -43 -82 -48 -48 -57 -53 -75 -43 -18
10 -32 4 -96 -41 l-75 -53 -1 -67 0 -66 -161 -194 c-89 -106 -166 -196 -172
-199 -5 -4 -44 -10 -86 -14 -42 -4 -79 -9 -82 -10 -3 -2 -1 -34 5 -70 l9 -66
-42 -43 c-39 -40 -42 -47 -34 -73 9 -27 11 -28 91 -31 91 -3 139 14 200 71
l32 31 0 -60 c0 -47 30 -190 42 -199 2 -1 42 3 90 8 110 13 148 -1 202 -74
l36 -49 65 0 c64 0 65 -1 89 -37 13 -21 32 -68 41 -105 l18 -68 116 0 c115 0
117 0 209 41 51 23 94 40 96 38 2 -2 31 -46 65 -96 34 -51 64 -93 66 -93 3 0
28 14 56 31 l51 32 47 -47 c46 -45 48 -46 112 -46 l65 0 38 -50 c38 -49 39
-50 95 -51 56 0 56 0 99 -54 60 -77 66 -97 52 -175 -12 -66 -12 -66 22 -135
20 -39 50 -115 68 -171 28 -85 38 -104 66 -122 20 -13 57 -62 98 -131 64 -105
69 -111 139 -151 39 -24 117 -58 171 -76 l100 -34 248 0 c239 0 249 1 300 24
29 13 64 36 78 51 14 15 66 52 115 82 50 31 93 61 97 66 3 6 9 36 13 68 l7 57
78 22 c70 20 82 27 106 62 15 21 55 61 89 88 38 30 68 64 79 89 l18 40 82 4
c63 3 106 13 193 45 61 22 139 46 172 53 l61 12 0 37 c0 21 14 69 31 109 l32
71 52 0 c28 0 77 5 108 11 41 9 64 9 88 0 25 -8 47 -8 91 0 49 10 64 19 98 55
22 24 40 50 40 57 0 8 -18 37 -40 65 -39 49 -40 52 -40 130 l0 80 35 6 c45 9
51 4 59 -39 9 -49 43 -47 105 4 39 32 56 40 96 43 46 3 50 5 59 36 l9 32 144
0 c127 0 149 -2 185 -21 l42 -21 56 62 56 63 45 -64 c44 -64 45 -64 114 -78
39 -8 98 -14 132 -13 l61 1 7 -39 c7 -42 12 -45 76 -55 31 -5 66 0 119 14 41
12 75 21 77 21 1 0 25 -38 54 -85 46 -76 68 -101 69 -77 0 4 13 22 28 40 27
32 28 33 62 19 19 -8 54 -18 76 -22 l42 -6 31 81 c27 71 31 95 31 176 0 91 1
94 23 94 12 -1 46 -21 76 -45 l55 -44 40 21 c69 35 177 68 225 68 46 0 46 1
99 75 30 41 56 75 57 75 2 0 27 -5 55 -11 l50 -11 0 -89 0 -89 39 0 c34 0 44
6 70 39 23 28 50 46 103 68 67 27 74 32 82 65 8 31 5 43 -22 90 l-32 55 26 24
c14 13 43 55 65 94 21 38 55 91 75 118 l36 47 -66 0 -66 0 0 64 0 65 53 30 54
31 69 -20 c38 -11 97 -20 131 -20 l63 0 0 74 c0 83 -9 74 92 92 31 5 39 12 48
40 11 34 12 34 73 34 50 0 70 -5 99 -25 33 -22 47 -25 132 -25 l94 0 67 120
67 120 44 0 c38 0 46 4 56 25 14 31 138 112 184 121 44 8 48 15 70 107 16 68
22 80 51 98 42 26 43 55 3 144 -22 50 -30 82 -30 125 0 66 -5 62 113 76 50 5
60 10 75 36 9 16 42 44 72 63 53 32 60 33 190 39 74 3 182 9 240 12 58 4 121
2 140 -3 23 -6 50 -6 80 2 44 11 45 11 48 57 2 37 -37 232 -50 242 -1 2 -25
16 -52 31 -38 22 -61 47 -104 113 -30 47 -65 116 -78 154 l-23 69 45 21 c32
16 43 26 38 38 -3 8 -9 57 -12 108 -4 83 -7 95 -27 108 -14 9 -27 33 -34 59
-10 38 -8 52 12 109 13 35 37 81 54 103 26 33 31 49 37 123 3 47 9 102 12 123
l7 37 67 0 c65 0 68 1 79 29 7 15 30 45 52 67 61 59 56 88 -27 158 l-65 56
-75 0 -74 0 0 44 c0 43 0 43 -52 63 l-53 20 -3 56 c-2 44 -7 59 -22 67 -19 10
-29 60 -12 60 4 0 18 9 32 19 l24 19 -47 23 -47 23 0 65 c0 63 -2 67 -33 87
-30 19 -36 19 -96 7 -35 -7 -95 -22 -132 -33 -69 -21 -69 -21 -114 -1 -29 13
-92 66 -182 154 l-138 135 22 68 c12 38 27 102 34 143 7 45 20 89 34 110 13
20 33 59 44 87 l20 52 -25 23 c-18 17 -24 33 -24 65 0 41 0 42 -46 53 -26 7
-73 25 -105 42 -59 29 -59 30 -59 73 0 40 -4 47 -34 65 -35 22 -40 34 -51 111
-5 39 -2 52 27 99 31 50 38 56 101 77 37 12 81 32 97 44 l30 21 -54 45 c-48
39 -56 50 -66 98 -10 49 -9 59 9 95 12 22 21 42 21 45 0 3 -52 32 -115 66
-107 57 -119 66 -172 137 -32 41 -63 82 -70 90 -7 9 -70 22 -195 39 -209 29
-229 27 -409 -32 -78 -26 -113 -43 -135 -65 -16 -17 -74 -66 -129 -108 l-100
-76 -80 -8 c-44 -4 -105 -10 -135 -13 l-55 -5 -55 55 c-30 31 -63 56 -73 56
-10 0 -35 -10 -56 -22 l-38 -22 -69 31 c-38 17 -68 35 -66 42 1 6 3 16 5 23 1
6 -13 16 -31 21 -30 9 -36 7 -66 -22 -19 -18 -77 -52 -129 -76 l-96 -43 -76
65 c-75 64 -77 66 -112 55 -30 -9 -50 -6 -141 22 l-107 32 -10 61 c-5 34 -14
66 -20 71 -5 5 -49 26 -97 47 l-88 38 0 51 c0 51 -1 52 -83 134 -89 89 -84 87
-192 67z"/>
<path d="M980 4706 c0 -30 8 -40 56 -79 54 -43 56 -44 100 -34 25 6 43 15 41
21 -3 6 -13 37 -23 69 l-18 57 -78 0 -78 0 0 -34z"/>
<path d="M590 4059 c0 -18 14 -32 55 -56 l55 -32 0 28 c0 39 -28 69 -72 77
-35 6 -38 4 -38 -17z"/>
<path d="M2220 972 c0 -38 2 -71 5 -74 8 -7 105 13 105 22 0 12 -91 120 -101
120 -5 0 -9 -31 -9 -68z"/>
</g>
</svg>
